assets/logo/primary.svg

<svg xmlns="http://www.w3.org/2000/svg" viewBox="0 0 457.06 470.58"><defs><style>.cls-1{fill:#210062;}</style></defs><g id="Layer_2" data-name="Layer 2"><g id="Layer_1-2" data-name="Layer 1"><polygon class="cls-1" points="114.27 164.72 228.53 66.14 342.79 164.72 380.4 197.16 457.06 197.16 342.79 98.58 228.53 0 114.27 98.58 0 197.16 76.66 197.16 114.27 164.72"/><path class="cls-1" d="M250.29,155.74H206.77a22.62,22.62,0,0,0-22.62,22.62V448a22.63,22.63,0,0,0,22.62,22.63h43.52A22.63,22.63,0,0,0,272.91,448V178.36A22.62,22.62,0,0,0,250.29,155.74Zm10.44,100A16.75,16.75,0,0,1,244,272.5h-30.9a16.75,16.75,0,0,1-16.75-16.75v-30.9a16.75,16.75,0,0,1,16.75-16.75H244a16.75,16.75,0,0,1,16.75,16.75Z"/><path class="cls-1" d="M125.55,204.47H82A22.63,22.63,0,0,0,59.41,227.1V448A22.63,22.63,0,0,0,82,470.58h43.51A22.63,22.63,0,0,0,148.18,448V227.1A22.63,22.63,0,0,0,125.55,204.47ZM136,273.81H71.59V258.67H136Zm0-23.15H71.59V235.52H136Z"/><path class="cls-1" d="M375,204.47H331.51a22.63,22.63,0,0,0-22.63,22.63V448a22.63,22.63,0,0,0,22.63,22.63H375A22.63,22.63,0,0,0,397.65,448V227.1A22.63,22.63,0,0,0,375,204.47Zm10.44,69.34H321.07V258.67h64.39Zm0-23.15H321.07V235.52h64.39Z"/></g></g></svg>

<?xml version="1.0" encoding="utf-8"?>
<!-- Generator: Adobe Illustrator 25.0.0, SVG Export Plug-In . SVG Version: 6.00 Build 0)  -->
<svg version="1.1" id="Layer_1" xmlns="http://www.w3.org/2000/svg" xmlns:xlink="http://www.w3.org/1999/xlink" x="0px" y="0px"
	 viewBox="0 0 457.1 470.6" style="enable-background:new 0 0 457.1 470.6;" xml:space="preserve">
<style type="text/css">
	.st0{fill:#210062;}
</style>
<g id="Layer_2_1_">
	<g id="Layer_1-2">
		<polygon class="st0" points="114.3,164.7 228.5,66.1 342.8,164.7 380.4,197.2 457.1,197.2 342.8,98.6 228.5,0 114.3,98.6 0,197.2 
			76.7,197.2 		"/>
		<path class="st0" d="M250.3,155.7h-43.5c-12.5,0-22.6,10.1-22.6,22.6V448c0,12.5,10.1,22.6,22.6,22.6h43.5
			c12.5,0,22.6-10.1,22.6-22.6V178.4C272.9,165.9,262.8,155.7,250.3,155.7L250.3,155.7z M260.7,255.7c0,9.2-7.5,16.7-16.7,16.8
			h-30.9c-9.3,0-16.8-7.5-16.8-16.8l0,0v-30.9c0-9.3,7.5-16.8,16.8-16.8H244c9.3,0,16.8,7.5,16.8,16.8L260.7,255.7z"/>
		<path class="st0" d="M125.6,204.5H82c-12.5,0-22.6,10.1-22.6,22.6V448c0,12.5,10.1,22.6,22.6,22.6h43.5
			c12.5,0,22.6-10.1,22.7-22.6V227.1C148.2,214.6,138,204.5,125.6,204.5z M136,273.8H71.6v-15.1H136V273.8z M136,250.7H71.6v-15.1
			H136V250.7z"/>
		<path class="st0" d="M375,204.5h-43.5c-12.5,0-22.6,10.1-22.6,22.6l0,0V448c0,12.5,10.1,22.6,22.6,22.6l0,0H375
			c12.5,0,22.6-10.1,22.6-22.6c0,0,0,0,0,0V227.1C397.6,214.6,387.5,204.5,375,204.5C375,204.5,375,204.5,375,204.5z M385.4,273.8
			h-64.4v-15.1h64.4L385.4,273.8z M385.4,250.7h-64.4v-15.1h64.4L385.4,250.7z"/>
	</g>
</g>
</svg>
